src/16/actions/go-parent-folder.svg

<svg xmlns="http://www.w3.org/2000/svg" viewBox="0 0 16 16">
  <defs id="defs3051">
    <style type="text/css" id="current-color-scheme">
      .ColorScheme-Text {
        color:#5d656b;
      }
      </style>
  </defs>
 <path style="fill:currentColor;fill-opacity:1;stroke:none" 
       d="M 2 2 L 2 3 L 2 6 L 2 7 L 2 13 L 2 14 L 9 14 L 9 13 L 3 13 L 3 7 L 13 7 L 13 8 L 14 8 L 14 6 L 14 5 L 14 4 L 9.0078125 4 L 7.0078125 2 L 7 2.0078125 L 7 2 L 3 2 L 2 2 z M 3 3 L 6.5917969 3 L 7.59375 4 L 7 4 L 7 4.0078125 L 6.9921875 4 L 4.9921875 6 L 3 6 L 3 3 z M 11.5 8 L 9.6210938 9.8789062 L 8.671875 10.828125 L 9.3789062 11.535156 L 10.328125 10.585938 L 11 9.9140625 L 11 12 L 11 14 L 12 14 L 12 13 L 12 12 L 12 9.9140625 L 12.671875 10.585938 L 13.621094 11.535156 L 14.328125 10.828125 L 13.378906 9.8789062 L 11.5 8 z "
     class="ColorScheme-Text"
     />
</svg>

<svg xmlns="http://www.w3.org/2000/svg" viewBox="0 0 16 16"><path d="M2 2v12h7v-1H3V7h10v1h1V4H9.008l-2-2L7 2.008V2H2zm1 1h3.592l1.002 1H7v.008L6.992 4l-2 2H3V3zm8.5 5L9.621 9.879l-.95.95.708.706.95-.95.671-.67V14h1V9.914l.672.672.95.95.706-.708-.95-.95L11.5 8z" fill="currentColor" color="#5d656b"/></svg>
